X: 119004
T: The BRAES O' MAR
Q: "Highland Schottische."
R: Schottische.
%R: shottish
B: James Kerr "Merry Melodies" v.1 p.19 s.0 #4
Z: 2017 John Chambers <jc:trillian.mit.edu>
M: C
L: 1/8
K: D
uA |\
F<A A>uB vd>veuf>ue | d<B B>uA vd>vBuB>uA |\
F<A A>B d>ef>e | vg>ug f<a e2d :|
|: ua |\
f<a a>ua vf>vdua>ud | g<b b>b g>eb>e |\
f<a a>a f>da>d | g<b a<f e2d :|

%%sep 1 1 500
%%sep 1 1 500

